icon-themes/breeze_svg/chart2/res/cylinderdeep_52x60.svg

<svg height="52" viewBox="0 0 60 52" width="60" xmlns="http://www.w3.org/2000/svg" xmlns:xlink="http://www.w3.org/1999/xlink"><linearGradient id="a"><stop offset="0" stop-color="#22a7f0"/><stop offset="1" stop-color="#62c1f4"/></linearGradient><linearGradient id="b"><stop offset="0" stop-color="#f62459"/><stop offset="1" stop-color="#f8567f"/></linearGradient><linearGradient id="c" gradientTransform="matrix(.88888889 0 0 .52120695 4.888901 496.34301)" gradientUnits="userSpaceOnUse" x1="8" x2="26" xlink:href="#b" y1="1043.8622" y2="1043.8622"/><linearGradient id="d" gradientTransform="matrix(.88888889 0 0 .52120695 27.886888 496.31703)" gradientUnits="userSpaceOnUse" x1="8" x2="26" xlink:href="#b" y1="1043.8622" y2="1043.8622"/><linearGradient id="e" gradientTransform="matrix(.88888889 0 0 .52120695 31.888747 490.34145)" gradientUnits="userSpaceOnUse" x1="8" x2="26" xlink:href="#a" y1="1043.8622" y2="1043.8622"/><linearGradient id="f" gradientTransform="matrix(.88888889 0 0 .52120695 8.888904 -510.02074)" gradientUnits="userSpaceOnUse" x1="8" x2="26" xlink:href="#a" y1="1043.8622" y2="1043.8622"/><g transform="translate(0 -1000.3622)"><path d="m0 1000.3622h60v52h-60z" fill="#fff"/><path d="m14 1037.3622-12 12" fill="none" stroke="#4d4d4d"/><path d="m13 1037.3622h46v .9874h-46z" fill="#4d4d4d"/><path d="m13 1002.3622h1v36h-1z" fill="#4d4d4d"/><path d="m16 17a8 4 0 0 0 0 .013672 8 4.5123385 0 0 0 0 .011719v5.974609 1.998047.001953a8 4 0 0 0 0 .013672 8 4.5123385 0 0 0 0 .011719 8 4.5123385 0 0 0 0 .001953v5.972656a8 4 0 0 0 0 .015625 8 4.5123385 0 0 0 0 .011719v1.972656a8 4 0 0 0 0 .013672 8 4.5123385 0 0 0 0 .013672v5.972656.001953a8 4 0 0 0 0 .013672 8 4.5123385 0 0 0 0 .011719h.001953a8 4 0 0 0 7.998047 3.972656 8 4 0 0 0 7.998047-3.974609h.001953a8 4.5123385 0 0 0 -.001953-.013672 8 4 0 0 0  .001953-.011719v-5.974609-.025391-1.974609-.025391-5.974609-.025391-2-6z" fill="url(#f)" transform="translate(0 1000.3622)"/><path d="m12.000012 1037.3622v8a8 4 0 0 0 0 .014 8 4.5123385 0 0 0 0 .012h.002a8 4 0 0 0 7.998 3.974 8 4 0 0 0 7.998047-3.9746h.002a8 4.5123385 0 0 0 -.002-.014 8 4 0 0 0  .002-.012v-8h-16z" fill="url(#c)"/><ellipse cx="24.000011" cy="1017.3606" fill="#8bd1f7" rx="8" ry="4"/><ellipse cx="20.000011" cy="1037.3622" fill="#fa86a4" rx="8" ry="4"/><path d="m39 1009.3622v7.998a8 4 0 0 0 0 .016 8 4.5123385 0 0 0 0 .012v5.9746 2a8 4 0 0 0 0 .014 8 4.5123385 0 0 0 0 .012v5.9726a8 4 0 0 0 0 .016 8 4.5123385 0 0 0 0 .012v7.9746a8 4 0 0 0 0 .014 8 4.5123385 0 0 0 0 .012h.002a8 4 0 0 0 7.998 3.9722 8 4 0 0 0 7.998047-3.9746h.002a8 4.5123385 0 0 0 -.002-.014 8 4 0 0 0  .002-.012v-7.9746-.025-5.9746-.025-2-5.9746-.025-8h-16z" fill="url(#e)"/><path d="m34.998047 1029.3368v8a8 4 0 0 0 0 .014 8 4.5123385 0 0 0 0 .012v7.9746a8 4 0 0 0 0 .014 8 4.5123385 0 0 0 0 .012h.002a8 4 0 0 0 7.998047 3.9746 8 4 0 0 0 7.998047-3.9746h.002a8 4.5123385 0 0 0 -.002-.014 8 4 0 0 0  .002-.012v-7.9746-.025-8h-16z" fill="url(#d)"/><ellipse cx="46.999855" cy="1009.3606" fill="#8bd1f7" rx="8" ry="4"/><ellipse cx="42.997997" cy="1029.3362" fill="#fa86a4" rx="8" ry="4"/></g></svg>

<?xml version="1.0" encoding="UTF-8" standalone="no"?>
<!-- Created with Inkscape (http://www.inkscape.org/) -->

<svg
   xmlns:dc="http://purl.org/dc/elements/1.1/"
   xmlns:cc="http://creativecommons.org/ns#"
   xmlns:rdf="http://www.w3.org/1999/02/22-rdf-syntax-ns#"
   xmlns:svg="http://www.w3.org/2000/svg"
   xmlns="http://www.w3.org/2000/svg"
   xmlns:xlink="http://www.w3.org/1999/xlink"
   xmlns:sodipodi="http://sodipodi.sourceforge.net/DTD/sodipodi-0.dtd"
   xmlns:inkscape="http://www.inkscape.org/namespaces/inkscape"
   width="60"
   height="52"
   viewBox="0 0 60 52"
   id="svg5736"
   version="1.1"
   inkscape:version="0.91 r13725"
   sodipodi:docname="cylinderdeep_52x60.svg">
  <defs
     id="defs5738">
    <linearGradient
       id="linearGradient4300-6">
      <stop
         id="stop4302-3"
         offset="0"
         style="stop-color:#f62459;stop-opacity:1" />
      <stop
         id="stop4304-88"
         offset="1"
         style="stop-color:#f73768;stop-opacity:1" />
    </linearGradient>
    <linearGradient
       id="linearGradient4197"
       inkscape:collect="always">
      <stop
         id="stop4199"
         offset="0"
         style="stop-color:#22a7f0;stop-opacity:1" />
      <stop
         id="stop4201"
         offset="1"
         style="stop-color:#62c1f4;stop-opacity:1" />
    </linearGradient>
    <linearGradient
       id="linearGradient4324">
      <stop
         style="stop-color:#f62459;stop-opacity:1"
         offset="0"
         id="stop4326" />
      <stop
         style="stop-color:#f8567f;stop-opacity:1"
         offset="1"
         id="stop4328" />
    </linearGradient>
    <linearGradient
       inkscape:collect="always"
       xlink:href="#linearGradient4324"
       id="linearGradient4250"
       x1="8"
       y1="1043.8622"
       x2="26"
       y2="1043.8622"
       gradientUnits="userSpaceOnUse"
       gradientTransform="matrix(0.88888889,0,0,0.52120695,4.8889012,496.34301)" />
    <linearGradient
       inkscape:collect="always"
       xlink:href="#linearGradient4324"
       id="linearGradient4250-8"
       x1="8"
       y1="1043.8622"
       x2="26"
       y2="1043.8622"
       gradientUnits="userSpaceOnUse"
       gradientTransform="matrix(0.88888889,0,0,0.52120695,27.886888,496.31703)" />
    <linearGradient
       inkscape:collect="always"
       xlink:href="#linearGradient4197"
       id="linearGradient4250-8-9"
       x1="8"
       y1="1043.8622"
       x2="26"
       y2="1043.8622"
       gradientUnits="userSpaceOnUse"
       gradientTransform="matrix(0.88888889,0,0,0.52120695,31.888747,490.34145)" />
    <linearGradient
       inkscape:collect="always"
       xlink:href="#linearGradient4197"
       id="linearGradient4250-8-9-2"
       x1="8"
       y1="1043.8622"
       x2="26"
       y2="1043.8622"
       gradientUnits="userSpaceOnUse"
       gradientTransform="matrix(0.88888889,0,0,0.52120695,8.8889043,-510.02074)" />
  </defs>
  <sodipodi:namedview
     id="base"
     pagecolor="#ffffff"
     bordercolor="#666666"
     borderopacity="1.0"
     inkscape:pageopacity="0.0"
     inkscape:pageshadow="2"
     inkscape:zoom="2.8"
     inkscape:cx="-56.752658"
     inkscape:cy="6.9096073"
     inkscape:document-units="px"
     inkscape:current-layer="layer1"
     showgrid="true"
     units="px"
     showguides="true"
     inkscape:guide-bbox="true"
     inkscape:window-width="1920"
     inkscape:window-height="1021"
     inkscape:window-x="-4"
     inkscape:window-y="0"
     inkscape:window-maximized="1"
     inkscape:snap-bbox="true"
     inkscape:object-nodes="true">
    <inkscape:grid
       type="xygrid"
       id="grid6381" />
    <sodipodi:guide
       position="21,49"
       orientation="0,1"
       id="guide6383" />
    <sodipodi:guide
       position="3,42"
       orientation="1,0"
       id="guide6385" />
    <sodipodi:guide
       position="57,37"
       orientation="1,0"
       id="guide6387" />
    <sodipodi:guide
       position="45,3"
       orientation="0,1"
       id="guide6389" />
  </sodipodi:namedview>
  <metadata
     id="metadata5741">
    <rdf:RDF>
      <cc:Work
         rdf:about="">
        <dc:format>image/svg+xml</dc:format>
        <dc:type
           rdf:resource="http://purl.org/dc/dcmitype/StillImage" />
        <dc:title></dc:title>
      </cc:Work>
    </rdf:RDF>
  </metadata>
  <g
     inkscape:label="Layer 1"
     inkscape:groupmode="layer"
     id="layer1"
     transform="translate(0,-1000.3622)">
    <rect
       style="color:#000000;clip-rule:nonzero;display:inline;overflow:visible;visibility:visible;opacity:1;isolation:auto;mix-blend-mode:normal;color-interpolation:sRGB;color-interpolation-filters:linearRGB;solid-color:#000000;solid-opacity:1;fill:#ffffff;fill-opacity:1;fill-rule:nonzero;stroke:none;stroke-width:10;stroke-linecap:butt;stroke-linejoin:miter;stroke-miterlimit:4;stroke-dasharray:none;stroke-dashoffset:0;stroke-opacity:1;color-rendering:auto;image-rendering:auto;shape-rendering:auto;text-rendering:auto;enable-background:accumulate"
       id="rect4205-6-4-60-7"
       width="60"
       height="52"
       x="0"
       y="1000.3622" />
    <path
       style="fill:none;fill-rule:evenodd;stroke:#4d4d4d;stroke-width:1px;stroke-linecap:butt;stroke-linejoin:miter;stroke-opacity:1"
       d="m 14,1037.3622 -12,12"
       id="path4994-1-3-9-9"
       inkscape:connector-curvature="0"
       sodipodi:nodetypes="cc" />
    <path
       style="color:#000000;clip-rule:nonzero;display:inline;overflow:visible;visibility:visible;opacity:1;isolation:auto;mix-blend-mode:normal;color-interpolation:sRGB;color-interpolation-filters:linearRGB;solid-color:#000000;solid-opacity:1;fill:#4d4d4d;fill-opacity:1;fill-rule:nonzero;stroke:none;stroke-width:10;stroke-linecap:butt;stroke-linejoin:miter;stroke-miterlimit:4;stroke-dasharray:none;stroke-dashoffset:0;stroke-opacity:1;color-rendering:auto;image-rendering:auto;shape-rendering:auto;text-rendering:auto;enable-background:accumulate"
       d="m 13,1037.3622 46,0 0,0.9874 -46,0 z"
       id="rect4214-3-2-0-1-3-8-8"
       inkscape:connector-curvature="0" />
    <path
       style="color:#000000;clip-rule:nonzero;display:inline;overflow:visible;visibility:visible;opacity:1;isolation:auto;mix-blend-mode:normal;color-interpolation:sRGB;color-interpolation-filters:linearRGB;solid-color:#000000;solid-opacity:1;fill:#4d4d4d;fill-opacity:1;fill-rule:nonzero;stroke:none;stroke-width:10;stroke-linecap:butt;stroke-linejoin:miter;stroke-miterlimit:4;stroke-dasharray:none;stroke-dashoffset:0;stroke-opacity:1;color-rendering:auto;image-rendering:auto;shape-rendering:auto;text-rendering:auto;enable-background:accumulate"
       d="m 13,1002.3622 1,0 0,36 -1,0 z"
       id="rect4216-2-9-2-5-9-2"
       inkscape:connector-curvature="0" />
    <path
       style="opacity:1;fill:url(#linearGradient4250-8-9-2);fill-opacity:1;stroke:none;stroke-width:8;stroke-linecap:square;stroke-miterlimit:4;stroke-dasharray:none;stroke-opacity:1"
       d="M 16 17 A 8 4 0 0 0 16 17.013672 A 8 4.5123385 0 0 0 16 17.025391 L 16 23 L 16 24.998047 L 16 25 A 8 4 0 0 0 16 25.013672 A 8 4.5123385 0 0 0 16 25.025391 A 8 4.5123385 0 0 0 16 25.027344 L 16 31 A 8 4 0 0 0 16 31.015625 A 8 4.5123385 0 0 0 16 31.027344 L 16 33 A 8 4 0 0 0 16 33.013672 A 8 4.5123385 0 0 0 16 33.027344 L 16 39 L 16 39.001953 A 8 4 0 0 0 16 39.015625 A 8 4.5123385 0 0 0 16 39.027344 L 16.001953 39.027344 A 8 4 0 0 0 24 43 A 8 4 0 0 0 31.998047 39.025391 L 32 39.025391 A 8 4.5123385 0 0 0 31.998047 39.011719 A 8 4 0 0 0 32 39 L 32 33.025391 L 32 33 L 32 31.025391 L 32 31 L 32 25.025391 L 32 25 L 32 23 L 32 17 L 16 17 z "
       transform="translate(0,1000.3622)"
       id="rect3442-3-2-9" />
    <path
       style="opacity:1;fill:url(#linearGradient4250);fill-opacity:1;stroke:none;stroke-width:8;stroke-linecap:square;stroke-miterlimit:4;stroke-dasharray:none;stroke-opacity:1"
       d="m 12.000012,1037.3622 0,8 a 8,4 0 0 0 0,0.014 8,4.5123385 0 0 0 0,0.012 l 0.002,0 a 8,4 0 0 0 7.998,3.974 8,4 0 0 0 7.998047,-3.9746 l 0.002,0 a 8,4.5123385 0 0 0 -0.002,-0.014 8,4 0 0 0 0.002,-0.012 l 0,-8 -16,0 z"
       id="rect3442"
       inkscape:connector-curvature="0" />
    <ellipse
       style="opacity:1;fill:#8bd1f7;fill-opacity:1;stroke:none;stroke-width:8;stroke-linecap:square;stroke-miterlimit:4;stroke-dasharray:none;stroke-opacity:1"
       id="path4252-8-3-6-0"
       cx="24.000011"
       cy="1017.3606"
       rx="8"
       ry="4" />
    <ellipse
       style="opacity:1;fill:#fa86a4;fill-opacity:1;stroke:none;stroke-width:8;stroke-linecap:square;stroke-miterlimit:4;stroke-dasharray:none;stroke-opacity:1"
       id="path4252-8"
       cx="20.000011"
       cy="1037.3622"
       rx="8"
       ry="4" />
    <path
       style="opacity:1;fill:url(#linearGradient4250-8-9);fill-opacity:1;stroke:none;stroke-width:8;stroke-linecap:square;stroke-miterlimit:4;stroke-dasharray:none;stroke-opacity:1"
       d="m 39,1009.3622 0,7.998 a 8,4 0 0 0 0,0.016 8,4.5123385 0 0 0 0,0.012 l 0,5.9746 0,2 a 8,4 0 0 0 0,0.014 8,4.5123385 0 0 0 0,0.012 l 0,5.9726 a 8,4 0 0 0 0,0.016 8,4.5123385 0 0 0 0,0.012 l 0,7.9746 a 8,4 0 0 0 0,0.014 8,4.5123385 0 0 0 0,0.012 l 0.002,0 a 8,4 0 0 0 7.998,3.9722 8,4 0 0 0 7.998047,-3.9746 l 0.002,0 a 8,4.5123385 0 0 0 -0.002,-0.014 8,4 0 0 0 0.002,-0.012 l 0,-7.9746 0,-0.025 0,-5.9746 0,-0.025 0,-2 0,-5.9746 0,-0.025 0,-8 -16,0 z"
       id="rect3442-3-2"
       inkscape:connector-curvature="0" />
    <path
       style="opacity:1;fill:url(#linearGradient4250-8);fill-opacity:1;stroke:none;stroke-width:8;stroke-linecap:square;stroke-miterlimit:4;stroke-dasharray:none;stroke-opacity:1"
       d="m 34.998047,1029.3368 0,8 a 8,4 0 0 0 0,0.014 8,4.5123385 0 0 0 0,0.012 l 0,7.9746 a 8,4 0 0 0 0,0.014 8,4.5123385 0 0 0 0,0.012 l 0.002,0 a 8,4 0 0 0 7.998047,3.9746 8,4 0 0 0 7.998047,-3.9746 l 0.002,0 a 8,4.5123385 0 0 0 -0.002,-0.014 8,4 0 0 0 0.002,-0.012 l 0,-7.9746 0,-0.025 0,-8 -16,0 z"
       id="rect3442-3"
       inkscape:connector-curvature="0" />
    <ellipse
       style="opacity:1;fill:#8bd1f7;fill-opacity:1;stroke:none;stroke-width:8;stroke-linecap:square;stroke-miterlimit:4;stroke-dasharray:none;stroke-opacity:1"
       id="path4252-8-3-6"
       cx="46.999855"
       cy="1009.3606"
       rx="8"
       ry="4" />
    <ellipse
       style="opacity:1;fill:#fa86a4;fill-opacity:1;stroke:none;stroke-width:8;stroke-linecap:square;stroke-miterlimit:4;stroke-dasharray:none;stroke-opacity:1"
       id="path4252-8-3"
       cx="42.997997"
       cy="1029.3362"
       rx="8"
       ry="4" />
  </g>
</svg>
